X:1
T:The Meeks Murder
M:4/4
L:1/4
K:C
 G/2G/2| C C C D| E E z F/2F/2| G G/2G/2 F E| D2 z| D| F D B, D| G G z G/2G/2|\
 A G D E| G z z| C| C C C D| E E z F| G G F E| D2 z| D| F D B, D| G G z G|\
 A G F D| C3||
